X:1
T:Guangzhou, 76.76 D
T:Guangzhou, 76.76 D
T:William Lesley Mason, 1899
T:Public Domain Courtesy of the Cyber Hymnal™
C:William Lesley Mason, 1899
Z:Public Domain
Z:Courtesy of the Cyber Hymnal™
%%score ( 1 2 ) ( 3 4 )
L:1/8
Q:1/4=105
M:6/8
K:Bb
V:1 treble 
V:2 treble 
V:3 bass 
V:4 bass 
V:1
 [Dd] | [Dc]2 [DB] [_DA]2 [DG] | [DF]3 [B,D]2 [DF] | [EG]2 [EG] [=Ec]2 [EB] | ([E-A]3 [EG]2) [EF] | %5
 [Fd]2 [DB] (cB)[EG] | [DF]3 [DB]2 [Fd] | [Fc]2 [FA] [=EB]2 [EG] | F3- F2 F | F2 F [=EG]2 [_EA] | %10
 [DB]3 [DF]2 [DB] | [EB]2 [EB] (cB)[Ec] | [^Fd]3- [Fd]2 [Fd] | [Ge]2 [Gd] [Gc]2 [GB] | %14
 ([FA]2{E} [=EG]) F2 [_EF] | [DF]2 [EB] [DB]2 [Ec] | [DB]3- [DB]2 |] %17
V:2
 x | x6 | x6 | x6 | x6 | x3 E2 x | x6 | x6 | F3- F2 F | F2 F x3 | x6 | x3 E2 x | x6 | x6 | x4 F2 | %15
 x6 | x5 |] %17
V:3
 [B,,F,] | [B,,F,]2 [B,,F,] [B,,=E,]2 [B,,E,] | [B,,F,]3 [B,,F,]2 [B,,B,] | %3
 [E,B,]2 [E,B,] [C,C]2 [C,C] | ([F,-C]3 [F,A,]2) [F,A,] | [B,,B,]2 [B,,B,] [B,,G,]2 [B,,G,] | %6
 [B,,B,]3 [B,,B,]2 [B,,B,] | [C,A,]2 [C,A,] [C,G,]2 [C,B,] | [F,A,]3- [F,A,]2 [F,A,] | %9
 [F,A,]2 [F,A,] [F,B,]2 [F,C] | [B,,B,]3 [B,,B,]2 [B,,B,] | [E,G,]2 [E,G,] [E,G,]2 [E,G,] | %12
 [D,A,]3- [D,A,]2 [D,A,] | [C,C]2 [D,=B,] [E,C]2 [=E,C] | C3 [A,C]2 [A,C] | %15
 B,2 [E,G,] [F,B,]2 [F,A,] | [B,,B,]3- [B,,B,]2 |] %17
V:4
 x | x6 | x6 | x6 | x6 | x6 | x6 | x6 | x6 | x6 | x6 | x6 | x6 | x6 | (F,2 G,) x3 | B,2 x4 | x5 |] %17

